flaticon/household/table.svg

<svg xmlns="http://www.w3.org/2000/svg" width="32" height="32" viewBox="0 0 24 24">
    <path d="M 23.601562 12 L 21.199219 12 L 21.199219 11.636719 C 21.332031 11.460938 22.046875 11.199219 22.398438 11.199219 L 22.800781 11.199219 C 23.019531 11.199219 23.199219 11.019531 23.199219 10.800781 C 23.199219 10.578125 23.019531 10.398438 22.800781 10.398438 L 16.398438 10.398438 C 16.179688 10.398438 16 10.578125 16 10.800781 C 16 11.019531 16.179688 11.199219 16.398438 11.199219 L 16.800781 11.199219 C 17.152344 11.199219 17.867188 11.460938 18 11.636719 L 18 12 L 12.800781 12 L 12.800781 11.199219 L 13.601562 11.199219 L 13.601562 8.800781 L 12.800781 8.800781 L 12.800781 7.199219 L 7.199219 7.199219 L 7.199219 9.601562 L 8 9.601562 L 8 10.398438 L 7.199219 10.398438 L 7.199219 12 L 5.710938 12 C 5.71875 11.96875 5.730469 11.9375 5.738281 11.902344 C 5.816406 11.515625 5.6875 11.125 5.398438 10.859375 C 5.078125 10.5625 4.871094 10.238281 4.789062 9.902344 L 4.710938 9.601562 L 4.164062 9.601562 L 5.082031 8.683594 C 5.238281 8.527344 5.238281 8.273438 5.082031 8.117188 C 4.925781 7.960938 4.671875 7.960938 4.515625 8.117188 L 4 8.632812 L 4 6.742188 C 4.6875 6.5625 5.199219 5.945312 5.199219 5.199219 L 5.199219 4.398438 L 4 4.398438 L 4 3.601562 L 2 3.601562 L 2 5.601562 C 2 6.34375 2.511719 6.964844 3.199219 7.144531 L 3.199219 9.601562 L 2.648438 9.601562 L 2.574219 9.902344 C 2.488281 10.238281 2.28125 10.5625 1.960938 10.859375 C 1.671875 11.125 1.546875 11.515625 1.621094 11.902344 C 1.628906 11.9375 1.640625 11.96875 1.652344 12 L 0.398438 12 C 0.179688 12 0 12.179688 0 12.398438 L 0 14.800781 C 0 15.019531 0.179688 15.199219 0.398438 15.199219 L 1.199219 15.199219 L 1.199219 20 C 1.199219 20.222656 1.378906 20.398438 1.601562 20.398438 L 2.800781 20.398438 C 2.996094 20.398438 3.164062 20.257812 3.195312 20.0625 L 3.941406 15.199219 L 20.058594 15.199219 L 20.804688 20.0625 C 20.835938 20.257812 21.003906 20.398438 21.199219 20.398438 L 22.398438 20.398438 C 22.621094 20.398438 22.800781 20.222656 22.800781 20 L 22.800781 15.199219 L 23.601562 15.199219 C 23.820312 15.199219 24 15.019531 24 14.800781 L 24 12.398438 C 24 12.179688 23.820312 12 23.601562 12 Z M 18.667969 11.199219 L 20.53125 11.199219 C 20.449219 11.320312 20.398438 11.453125 20.398438 11.601562 L 20.398438 12 L 18.800781 12 L 18.800781 11.601562 C 18.800781 11.453125 18.75 11.320312 18.667969 11.199219 Z M 8 8 L 12 8 L 12 8.800781 L 8 8.800781 Z M 8.800781 9.601562 L 12.800781 9.601562 L 12.800781 10.398438 L 8.800781 10.398438 Z M 8 11.199219 L 12 11.199219 L 12 12 L 8 12 Z M 4.398438 5.199219 C 4.398438 5.496094 4.238281 5.753906 4 5.890625 L 4 5.199219 Z M 2.800781 5.601562 L 2.800781 4.398438 L 3.199219 4.398438 L 3.199219 6.292969 C 2.960938 6.15625 2.800781 5.894531 2.800781 5.601562 Z M 2.40625 11.746094 C 2.375 11.585938 2.464844 11.480469 2.503906 11.445312 C 2.847656 11.125 3.097656 10.773438 3.25 10.398438 L 4.109375 10.398438 C 4.261719 10.773438 4.511719 11.125 4.855469 11.445312 C 4.894531 11.480469 4.984375 11.585938 4.953125 11.746094 C 4.925781 11.890625 4.777344 12 4.609375 12 L 2.75 12 C 2.582031 12 2.433594 11.890625 2.40625 11.746094 Z M 2.457031 19.601562 L 2 19.601562 L 2 15.199219 L 3.132812 15.199219 Z M 22 19.601562 L 21.542969 19.601562 L 20.867188 15.199219 L 22 15.199219 Z M 23.199219 14.398438 L 0.800781 14.398438 L 0.800781 12.800781 L 23.199219 12.800781 Z M 23.199219 14.398438"/>
</svg>

<svg xmlns="http://www.w3.org/2000/svg" width="32" height="32" viewBox="0 0 24 24">
    <path d="M23.602 12h-2.403v-.363c.133-.176.848-.438 1.2-.438h.402a.4.4 0 0 0 0-.8h-6.403a.401.401 0 0 0 0 .8h.403c.351 0 1.066.262 1.199.438V12h-5.2v-.8h.802V8.8H12.8V7.2H7.199v2.402H8v.796h-.8V12H5.71c.009-.031.02-.063.028-.098a1.11 1.11 0 0 0-.34-1.043c-.32-.296-.527-.62-.609-.957l-.078-.3h-.547l.918-.918a.4.4 0 0 0-.566-.567L4 8.633v-1.89c.688-.18 1.2-.798 1.2-1.544v-.8H4v-.797H2v2a1.6 1.6 0 0 0 1.2 1.543v2.457h-.552l-.074.3c-.086.336-.293.66-.613.957a1.12 1.12 0 0 0-.34 1.043c.008.036.02.067.031.098H.398a.4.4 0 0 0-.398.398v2.403a.4.4 0 0 0 .398.398H1.2V20c0 .223.18.398.403.398H2.8c.195 0 .363-.14.394-.335l.746-4.864H20.06l.746 4.864c.03.195.199.335.394.335h1.2A.398.398 0 0 0 22.8 20v-4.8h.8a.4.4 0 0 0 .399-.4v-2.402a.4.4 0 0 0-.398-.398zm-4.934-.8h1.863a.708.708 0 0 0-.133.402V12h-1.597v-.398a.708.708 0 0 0-.133-.403zM8 8h4v.8H8zm.8 1.602h4v.796h-4zM8 11.199h4V12H8zm-3.602-6c0 .297-.16.555-.398.692v-.692zm-1.597.403V4.398h.398v1.895a.8.8 0 0 1-.398-.691zm-.395 6.144a.321.321 0 0 1 .098-.3c.344-.321.594-.673.746-1.048h.86c.152.375.402.727.745 1.047.04.035.13.14.098.301-.027.145-.176.254-.344.254H2.75c-.168 0-.316-.11-.344-.254zm.051 7.856H2v-4.403h1.133zm19.543 0h-.457l-.676-4.403H22zm1.2-5.204H.8v-1.597h22.4zm0 0"/>
</svg>
